!!!OTL: SUESSE HEILIGE NATUR
!!!ARE: Europa, Mitteleuropa, Deutschland
!!!SCT: B0171
!!!YEM: Copyright 1995, estate of Helmut Schaffrath.
**kern
*ICvox
*Ivox
*M2/4
*k[b-e-a-]
*E-:
{8.g
16f
=1
8.e-
16e-
16d
16e-
16f
16g
=2
8f
8e-}
{8b-
8g
=3
8b-
8g
16f
16g
16a-
16b-
=4
8a-
8g}
{16ee-
16dd
16cc
16b-
=5
8b-
8g
8cc
16b-
16a-
=6
8g
8f}
{16b-
16g
8e-
=7
16cc
16a-
8f
8e-
16d
16f
=8
8f
8e-}
==
!!!AGN: Natur - Lied
!!!ONB: ESAC (Essen Associative Code) Database: BOEHME
!!!AMT: simple duple
!!!AIN: vox
!!!EED: Helmut Schaffrath
!!!EEV: 1.0
*-
